packages/core/src/svgs/tokens/branded/DPET.svg

<svg width="24" height="24" viewBox="0 0 24 24" fill="none" xmlns="http://www.w3.org/2000/svg">
<path d="M5.44003 8.44043L4.86862 4.97196C4.85165 4.8662 4.87599 4.75798 4.93663 4.66968C4.99726 4.58139 5.08953 4.5198 5.19433 4.49768L7.57141 4.01199C7.73711 3.9777 7.90282 4.04056 7.99995 4.17769L8.5428 4.93196L9.03424 3.83485C9.09131 3.70343 9.2057 3.61771 9.34277 3.58913L15.7598 2.44632C15.9883 2.40632 16.2055 2.56061 16.2455 2.78916L16.7825 5.77764L16.0511 6.58906L16.3826 8.60043H18.7482C18.9767 8.60043 19.4397 8.68042 19.4397 8.9147V14.423C19.4397 15.063 18.8854 15.3374 18.5368 15.3374H17.5311C17.5311 18.1773 16.474 20.0686 16.474 20.2401V20.3086C16.394 20.84 16.5711 21.0628 15.2741 21.0628C13.9826 21.0628 13.0112 21.68 12.9312 21.1428L12.8284 21.24L12.8112 20.8572H5.15433C4.92005 20.8572 4.58292 20.5143 4.58292 20.2858V15.143H4.10294C3.85722 15.143 3.41724 14.8802 3.41724 14.3774L3.96579 8.8347C3.97722 8.61185 4.16007 8.43471 4.38863 8.43471H5.44575L5.44003 8.44043Z" fill="#5B2C16"/>
<path d="M5.21144 8.00043L4.63431 4.53196C4.6175 4.42539 4.64263 4.31645 4.70443 4.22802C4.76622 4.13958 4.85987 4.07853 4.96572 4.05768L7.33708 3.57199C7.5028 3.53769 7.6685 3.60056 7.76564 3.74341L8.30848 4.49196L8.79994 3.39485C8.85701 3.26913 8.97127 3.17771 9.10847 3.14913L15.5255 2.00631C15.754 1.96631 15.9711 2.1206 16.0111 2.34916L16.5482 5.33764L15.8225 6.14904L16.1483 8.28613H18.3425C18.571 8.28613 18.8682 8.34898 18.8682 8.57755V14.3088C18.8682 14.6574 18.4797 14.9374 18.1254 14.9374H17.7254V16.1944C18.1321 16.1278 18.5489 16.1576 18.9419 16.2818C19.335 16.4058 19.6934 16.6206 19.9881 16.9087C20.7824 17.6801 20.6281 18.5716 20.3939 19.1544C19.8224 20.5828 18.3367 20.6972 17.5367 20.4858V21.0915C17.451 21.6228 16.314 22 15.0226 22C13.7255 22 12.6626 21.6228 12.5826 21.0858V20.2858H4.9143C4.68573 20.2858 4.58288 20.0001 4.58288 19.7715V14.743H3.8629C3.80617 14.7439 3.74987 14.7331 3.69744 14.7114C3.645 14.6898 3.59755 14.6577 3.55797 14.617C3.51839 14.5764 3.48752 14.5281 3.46725 14.475C3.44697 14.4221 3.43772 14.3656 3.44005 14.3088L3.72576 8.3947C3.73719 8.17185 3.92576 7.99471 4.1486 7.99471H5.20572L5.21144 8.00043Z" fill="#9A3A05"/>
<path d="M17.1996 19.3544C17.0118 19.2009 16.8582 19.0098 16.7487 18.7934C16.6391 18.577 16.5762 18.3401 16.5638 18.0979C16.5514 17.8556 16.5899 17.6135 16.6767 17.3871C16.7637 17.1606 16.897 16.9548 17.0682 16.783C17.3367 16.4287 18.7309 16.0059 19.8109 17.0516C20.1365 17.3483 20.3353 17.7589 20.3661 18.1984C20.397 18.6378 20.2575 19.0722 19.9766 19.4116C19.7928 19.5942 19.574 19.7379 19.3333 19.8342C19.0927 19.9305 18.8352 19.9774 18.576 19.9721C18.3168 19.9667 18.0615 19.9093 17.825 19.8031C17.5886 19.697 17.3759 19.5445 17.1996 19.3544Z" fill="#FBCC21"/>
<path d="M17.594 18.9887C17.4649 18.8828 17.3595 18.7511 17.2843 18.602C17.2091 18.4529 17.1658 18.2899 17.1571 18.1232C17.1486 17.9564 17.1748 17.7898 17.2343 17.6338C17.2938 17.4779 17.3851 17.336 17.5025 17.2174C17.7255 16.9887 18.6454 16.6802 19.3882 17.4002C19.6117 17.6056 19.7479 17.889 19.7691 18.1917C19.7905 18.4945 19.695 18.794 19.5025 19.0287C19.3758 19.1537 19.2253 19.252 19.06 19.3177C18.8946 19.3836 18.7177 19.4156 18.5398 19.4118C18.3619 19.4081 18.1865 19.3686 18.024 19.296C17.8616 19.2233 17.7153 19.1189 17.594 18.9887Z" fill="#EA7E0F"/>
<path d="M17.3711 17.3829L17.7198 17.7429L18.2397 17.3773L18.194 16.9544C17.8683 16.983 17.6055 17.1087 17.5026 17.2173C17.4516 17.2664 17.4074 17.3221 17.3711 17.3829Z" fill="#FCF7F2"/>
<path d="M18.5941 19.1773C17.0799 18.9887 17.4569 17.9373 17.8341 17.4287C18.0512 17.1659 18.6112 16.8744 19.1541 17.8459C19.6969 18.8229 19.0056 19.1373 18.5941 19.1773Z" fill="#925100"/>
<path d="M17.6453 18.2744C17.6453 18.9658 18.2451 19.1544 18.548 19.1601C18.7766 19.1658 19.4623 19.1029 19.4395 18.2744C19.4165 17.4459 18.7652 17.0344 18.5252 17.0344C18.2966 17.0344 17.6453 17.4116 17.6453 18.2744Z" fill="#FDE824"/>
<path d="M19.1882 18.1716C19.0854 18.1201 18.931 18.3259 18.8682 18.4344C18.794 18.5658 18.6853 18.8286 18.8453 18.8116C19.0053 18.8001 19.1425 18.6286 19.1882 18.5429C19.2282 18.4401 19.291 18.2116 19.1882 18.1659V18.1716ZM18.1025 17.5201C18.1711 17.5659 18.1025 17.7487 18.0568 17.8287C17.9997 17.9259 17.8853 18.0973 17.8283 17.9887C17.7711 17.8859 17.8283 17.7316 17.8625 17.6687C17.914 17.6001 18.034 17.4687 18.1025 17.5201Z" fill="#FBB107"/>
<path d="M17.0738 19.6686C16.3423 19.2573 16.3251 18.1429 16.4051 17.6401C16.2242 18.0209 16.1693 18.4494 16.2483 18.8636C16.3275 19.2777 16.5366 19.6557 16.8451 19.943C18.1595 20.7772 19.2452 20.2115 19.6222 19.8229C18.6795 20.2686 17.9823 20.1886 17.0738 19.6686Z" fill="#5E2009"/>
<path d="M17.5081 18.9029L17.5938 18.9886C17.7152 19.1197 17.8618 19.2249 18.0247 19.2981C18.1878 19.3713 18.3638 19.411 18.5424 19.4147C18.721 19.4185 18.8985 19.3862 19.0644 19.3198C19.2303 19.2535 19.3812 19.1545 19.508 19.0286C19.6223 18.9086 19.7308 18.6973 19.7651 18.4458H19.3823C19.268 18.6458 18.9595 19.0573 18.6566 19.1315C18.3995 19.1886 17.8566 19.0286 17.5081 18.9029Z" fill="#E7FFF5"/>
<path d="M4.01123 10.5946V9.27467H6.1483L5.9826 8.12613L6.1483 8.05185L5.9026 6.38333L5.72546 6.33761L5.46832 4.73195L7.18827 4.41767L8.85677 5.20622L9.41675 4.05197L11.1482 3.80626L11.251 4.54909L11.4624 4.86908L11.4167 3.80626L12.9596 3.59484C13.0738 3.76626 13.4452 4.08625 13.6166 4.2234L13.9309 3.38913C14.2453 3.32628 14.9366 3.20057 15.2452 3.19485C15.5423 3.18913 15.7023 3.36627 15.7366 3.45199L16.0395 5.37193L15.3138 6.38333L15.6908 9.27467H17.9308L18.2965 9.7489V14.0002H17.1537V16.2859C15.9138 17.2344 15.9023 18.3944 15.9938 18.8116H14.0166C13.7096 18.7972 13.4052 18.8757 13.1433 19.0368C12.8813 19.1977 12.674 19.4338 12.5481 19.7143H5.66831L5.15405 19.3886V17.7601H5.58261V16.6744C5.58261 16.2744 5.23975 15.9774 5.15405 15.8744V14.743L4.01123 14.1202V12.286H4.35407V11.2861C4.35407 10.8631 4.11979 10.6461 4.01123 10.5946Z" fill="#5C2307"/>
<path d="M7.24565 4.94338L5.66284 5.21765L5.85712 6.13762L6.13711 6.08049L6.5371 8.58327L6.19425 8.66327L6.36567 9.62891L7.94848 9.34325L7.61706 7.08046L8.99993 8.73184L9.82271 6.7719L10.2056 9.04611L11.7598 8.76041L11.6227 7.88614L11.2799 7.94329L10.9084 5.38337L11.2456 5.32622L11.0684 4.39482L9.54845 4.62909L8.66846 6.71475L7.24565 4.94338Z" fill="#8D8C8E"/>
<path d="M7.1712 4.50911L5.58838 4.7834L5.78267 5.69765L6.05694 5.64052L6.45693 8.1433L6.11408 8.229L6.2855 9.18897L7.87403 8.90328L7.54261 6.6462L8.92549 8.29187L9.74827 6.33763L10.1311 8.60614L11.6854 8.32615L11.5482 7.44617L11.2054 7.50332L10.8282 4.9491L11.171 4.89197L10.994 3.95485L9.46828 4.19484L8.58829 6.2805L7.1712 4.50911Z" fill="#F4F4F5"/>
<path d="M11.7484 5.28623L11.5654 4.29198L12.9369 4.12627L13.7083 5.38337L14.1026 3.92627L15.4397 3.74342L15.554 4.76054H15.234L14.5311 6.58334L14.6511 7.40046L14.9883 7.34332L15.1311 8.24614L13.2055 8.59471L13.0798 7.69188L13.4226 7.63473L13.2968 6.79476L12.0341 5.21766L11.7484 5.28623Z" fill="#8D8C8E"/>
<path d="M11.6853 4.84623L11.5081 3.84626L12.8795 3.68626L13.6452 4.94337L14.0452 3.48056L15.3822 3.30342L15.4965 4.31482H15.1765L14.468 6.14334L14.588 6.96046L14.9308 6.90331L15.0737 7.80043L13.148 8.1547L13.0165 7.24616L13.3595 7.18901L13.2337 6.35476L11.9766 4.77766L11.6909 4.84623H11.6853Z" fill="#F4F4F5"/>
<path fill-rule="evenodd" clip-rule="evenodd" d="M10.8681 9.42894H11.7253V11.1431H10.8681V10.5718H8.29676V9.88035H8.44533V9.62889H10.8681V9.42894ZM4.58259 9.57751H7.13108C7.61678 9.57751 8.01106 9.95462 8.01106 10.4231V12.9717C8.01106 13.4402 7.61107 13.8174 7.13108 13.8174H4.29688V12.9603H4.58259V10.5718H4.29688V9.71462H4.58259V9.57751ZM5.72541 10.5718H6.86822V12.9031H5.72541V10.5718ZM8.29676 12.8575H11.7253V14.0002H8.29676V12.8575ZM10.8739 11.1603H8.95391V12.0003H10.8739V11.1603ZM17.4394 9.42894H15.7252V10.5718H17.4394V9.42894ZM17.4394 12.8575H15.7252V14.0002H17.4394V12.8575ZM14.2966 9.58323H15.1537V10.7946H14.2966V10.5661H12.0109V9.88035H14.2966V9.58323ZM14.0108 13.4288H12.2966V14.0002H14.0108V13.4288ZM13.0566 11.1431H14.8737V12.0003H13.0566V11.1431ZM13.1538 14.5717H14.0795V15.0574H16.0108V14.5717H16.8679V16.2859H16.0108V15.943H14.0795V16.2859H13.1538V14.5717ZM9.75962 15.0287H10.7424V15.0402H12.2966V15.0687H12.5823V16.2859H11.4396V15.943H10.7424V16.7201H11.8452V17.4287H10.7424V18.5716H12.5823V19.7143H9.1539V18.5716H9.75962V15.943H9.1539V15.0402H9.75962V15.0287ZM6.46253 14.5717H5.154V15.7144H5.73683V18.5716H5.43969V19.7143H7.15394V18.5716H6.7311V17.4573H8.03962C8.49675 17.4573 8.86818 17.0801 8.86818 16.6116V15.8687C8.86818 15.4117 8.49675 15.0287 8.03962 15.0287H6.72538V14.7259H6.46253V14.5717ZM7.79962 15.943H6.87965V16.8459H7.79962V15.943Z" fill="#BF5911"/>
<path fill-rule="evenodd" clip-rule="evenodd" d="M4.29688 9.42894H7.09679C7.59963 9.42894 8.01106 9.80036 8.01106 10.2518V12.606C8.01106 13.0631 7.59963 13.4288 7.09679 13.4288H4.29688V12.5031H4.58259V10.2861H4.29688V9.42894ZM5.72541 10.2861H6.86822V12.5717H5.72541V10.2861Z" fill="#FEAE00"/>
<path d="M8.29712 9.42894H11.7257V10.8575H10.8685V10.2861H10.0113V11.1431H10.8685V11.7146H10.0113V12.5717H10.8685V12.286H11.7257V13.4288H8.29712V12.5717H8.86854V10.2861H8.29712V9.42894ZM17.4398 9.42894H15.7255V10.2861H16.0111V12.5717H15.7255V13.4288H17.4398V12.5717H17.154V10.2861H17.4398V9.42894ZM15.1541 9.42894V10.5718H14.2969V10.3431H13.7256V11.1431H14.8684V11.7146H13.7256V12.5145H14.0112V13.4288H12.297V12.5145H12.5827V10.3431H12.0112V9.42894H15.1541Z" fill="#FBB200"/>
<path d="M9.1543 14.5717H12.5827V16.0002H11.7257V15.7145H10.8685V16.5717H11.8513V17.143H10.8685V18.2859H11.7257V17.4287H12.5827V19.1429H9.1543V18.2859H9.72575V15.7145H9.1543V14.5717ZM13.1542 16.0002V14.5717H16.8683V16.0002H16.0112V15.4288H15.6912V18.0001H16.0112V18.9716H14.1599V18.0001H14.4684V15.4288H14.0112V16.0002H13.1542Z" fill="#FEAE00"/>
<path fill-rule="evenodd" clip-rule="evenodd" d="M5.15454 14.5717H8.03446C8.49159 14.5717 8.86872 14.9717 8.86872 15.463V16.2517C8.86872 16.743 8.49729 17.143 8.03446 17.143H6.86877V18.2859H7.15448V19.1429H5.44024V18.2859H5.72595V15.463H5.15454V14.5717ZM6.86877 15.5774H7.61732V16.4802H6.86877V15.5774Z" fill="#FEAE00"/>
<path d="M17.2566 20.6572C17.1823 21.0515 16.2109 21.36 15.0167 21.36C13.8282 21.36 12.8567 21.0515 12.7825 20.6572V19.6801C12.8282 19.2801 13.811 18.9544 15.0167 18.9544C16.2452 18.9544 17.2395 19.2858 17.2566 19.6973V20.6572Z" fill="#EA780B"/>
<path d="M16.6967 21.1086C16.0812 21.3167 15.4309 21.4022 14.7825 21.36V20.3715C15.2397 20.2115 16.2282 19.9544 16.4339 20.1886C16.6054 20.383 16.6739 20.8173 16.6909 21.1086H16.6967Z" fill="#F8A70A"/>
<path d="M15.0165 20.463C16.2537 20.463 17.2565 20.1253 17.2565 19.7086C17.2565 19.2921 16.2537 18.9544 15.0165 18.9544C13.7795 18.9544 12.7766 19.2921 12.7766 19.7086C12.7766 20.1253 13.7795 20.463 15.0165 20.463Z" fill="#FEC61D"/>
<path d="M15.0167 20.2686C15.8372 20.2686 16.5024 20.0179 16.5024 19.7086C16.5024 19.3994 15.8372 19.1486 15.0167 19.1486C14.1962 19.1486 13.531 19.3994 13.531 19.7086C13.531 20.0179 14.1962 20.2686 15.0167 20.2686Z" fill="#FF851F"/>
<path d="M15.0169 20.0686C15.5471 20.0686 15.9768 19.8793 15.9768 19.6458C15.9768 19.4122 15.5471 19.2229 15.0169 19.2229C14.4867 19.2229 14.0569 19.4122 14.0569 19.6458C14.0569 19.8793 14.4867 20.0686 15.0169 20.0686Z" fill="#FBE82D"/>
<path d="M18.1709 18.7029C18.3034 18.7029 18.4109 18.5956 18.4109 18.4629C18.4109 18.3304 18.3034 18.2229 18.1709 18.2229C18.0384 18.2229 17.9309 18.3304 17.9309 18.4629C17.9309 18.5956 18.0384 18.7029 18.1709 18.7029Z" fill="#FF9A01"/>
<path d="M18.708 17.8459C18.8405 17.8459 18.948 17.7384 18.948 17.6059C18.948 17.4733 18.8405 17.3659 18.708 17.3659C18.5755 17.3659 18.468 17.4733 18.468 17.6059C18.468 17.7384 18.5755 17.8459 18.708 17.8459Z" fill="#FF9A01"/>
</svg>

<svg xmlns="http://www.w3.org/2000/svg" width="24" height="24" fill="none" viewBox="0 0 24 24">
    <path fill="#5B2C16" d="m5.44 8.44-.571-3.468a.417.417 0 0 1 .325-.474l2.377-.486A.42.42 0 0 1 8 4.178l.543.754.491-1.097a.42.42 0 0 1 .309-.246l6.417-1.143a.42.42 0 0 1 .486.343l.537 2.989-.732.811.332 2.011h2.365c.229 0 .692.08.692.315v5.508c0 .64-.555.914-.903.914H17.53c0 2.84-1.057 4.732-1.057 4.903v.069c-.08.531.097.754-1.2.754-1.291 0-2.263.617-2.343.08l-.103.097-.017-.383H5.154c-.234 0-.571-.343-.571-.571v-5.143h-.48c-.246 0-.686-.263-.686-.766l.549-5.542a.42.42 0 0 1 .423-.4h1.057z"/>
    <path fill="#9A3A05" d="m5.211 8-.577-3.468a.417.417 0 0 1 .332-.474l2.371-.486a.41.41 0 0 1 .429.171l.542.749.492-1.097a.44.44 0 0 1 .308-.246l6.417-1.143a.42.42 0 0 1 .486.343l.537 2.989-.725.811.325 2.137h2.195c.228 0 .525.063.525.292v5.73c0 .35-.388.63-.743.63h-.4v1.256a2.63 2.63 0 0 1 2.263.715c.794.771.64 1.663.406 2.245-.572 1.429-2.057 1.543-2.857 1.332v.605c-.086.532-1.223.909-2.514.909-1.297 0-2.36-.377-2.44-.914v-.8H4.914c-.228 0-.331-.286-.331-.515v-5.028h-.72a.415.415 0 0 1-.423-.434l.286-5.914c.011-.223.2-.4.423-.4h1.057z"/>
    <path fill="#FBCC21" d="M17.2 19.354a1.74 1.74 0 0 1-.132-2.571c.269-.354 1.663-.777 2.743.269a1.713 1.713 0 0 1 .166 2.36 1.93 1.93 0 0 1-2.777-.058"/>
    <path fill="#EA7E0F" d="M17.594 18.989a1.197 1.197 0 0 1-.091-1.772c.223-.228 1.142-.537 1.885.183a1.19 1.19 0 0 1 .114 1.629 1.33 1.33 0 0 1-1.908-.04"/>
    <path fill="#FCF7F2" d="m17.371 17.383.349.36.52-.366-.046-.423c-.326.029-.588.155-.691.263a.8.8 0 0 0-.132.166"/>
    <path fill="#925100" d="M18.594 19.177c-1.514-.188-1.137-1.24-.76-1.748.217-.263.777-.555 1.32.417.543.977-.148 1.291-.56 1.331"/>
    <path fill="#FDE824" d="M17.645 18.274c0 .692.6.88.903.886.229.006.914-.057.892-.886-.024-.828-.675-1.24-.915-1.24-.228 0-.88.378-.88 1.24"/>
    <path fill="#FBB107" d="M19.188 18.172c-.103-.052-.257.154-.32.262-.074.132-.183.395-.023.378.16-.012.297-.183.343-.27.04-.102.103-.33 0-.376zm-1.085-.652c.068.046 0 .229-.046.309-.057.097-.172.268-.229.16-.057-.103 0-.257.035-.32.051-.069.171-.2.24-.149"/>
    <path fill="#5E2009" d="M17.074 19.669c-.732-.412-.749-1.526-.669-2.029a1.985 1.985 0 0 0 .44 2.303c1.315.834 2.4.268 2.777-.12-.942.446-1.64.366-2.548-.154"/>
    <path fill="#E7FFF5" d="m17.508 18.903.086.086a1.33 1.33 0 0 0 1.914.04c.114-.12.223-.332.257-.583h-.383c-.114.2-.423.611-.725.685-.258.058-.8-.102-1.149-.228"/>
    <path fill="#5C2307" d="M4.011 10.595v-1.32h2.137l-.165-1.149.165-.074-.245-1.669-.178-.045-.257-1.606 1.72-.314 1.669.788.56-1.154 1.731-.246.103.743.211.32-.045-1.063 1.543-.211c.114.171.485.491.657.628l.314-.834c.314-.063 1.006-.188 1.314-.194.297-.006.457.171.492.257l.303 1.92-.726 1.011.377 2.892h2.24l.366.474V14h-1.143v2.286c-1.24.948-1.252 2.108-1.16 2.526h-1.977a1.53 1.53 0 0 0-1.469.902h-6.88l-.514-.325V17.76h.429v-1.086c0-.4-.343-.697-.429-.8v-1.131l-1.143-.623v-1.834h.343v-1c0-.423-.234-.64-.343-.691"/>
    <path fill="#8D8C8E" d="m7.246 4.943-1.583.275.194.92.28-.058.4 2.503-.343.08.172.966 1.582-.286-.33-2.263L9 8.732l.823-1.96.383 2.274 1.554-.286-.137-.874-.343.057-.372-2.56.338-.057-.178-.931-1.52.234-.88 2.086z"/>
    <path fill="#F4F4F5" d="m7.171 4.51-1.583.273.195.915.274-.057.4 2.502-.343.086.172.96 1.588-.286-.331-2.257 1.382 1.646.823-1.954.383 2.268 1.554-.28-.137-.88-.343.057-.377-2.554.343-.057-.177-.937-1.526.24-.88 2.085z"/>
    <path fill="#8D8C8E" d="m11.748 5.286-.183-.994 1.372-.166.771 1.257.395-1.457 1.337-.183.114 1.018h-.32l-.703 1.822.12.817.337-.057.143.903-1.925.349-.126-.903.343-.057-.126-.84-1.263-1.577z"/>
    <path fill="#F4F4F5" d="m11.685 4.846-.177-1 1.372-.16.765 1.257.4-1.462 1.337-.178.114 1.012h-.32l-.708 1.828.12.817.343-.057.143.897-1.926.355-.131-.909.343-.057-.126-.834-1.257-1.577-.286.068z"/>
    <path fill="#BF5911" fill-rule="evenodd" d="M10.868 9.429h.857v1.714h-.857v-.571H8.297V9.88h.148v-.25h2.423zm-6.285.149H7.13c.486 0 .88.377.88.845v2.549c0 .468-.4.845-.88.845H4.297v-.857h.286v-2.388h-.286v-.857h.286zm1.142.994h1.143v2.331H5.725zm2.572 2.286h3.428V14H8.297zm2.577-1.698h-1.92V12h1.92zm6.565-1.731h-1.714v1.143h1.714zm0 3.428h-1.714V14h1.714zm-3.142-3.274h.857v1.212h-.857v-.229H12.01V9.88h2.286zm-.286 3.846h-1.714V14h1.714zm-.954-2.286h1.817V12h-1.817zm.097 3.429h.925v.485h1.932v-.485h.857v1.714h-.857v-.343H14.08v.343h-.926zm-3.394.457h.982v.011h1.555v.029h.285v1.217H11.44v-.343h-.698v.777h1.103v.709h-1.103v1.143h1.84v1.142H9.154v-1.142h.606v-2.629h-.606v-.903h.606zm-3.297-.457H5.154v1.142h.583v2.858H5.44v1.142h1.714v-1.142H6.73v-1.115h1.31a.837.837 0 0 0 .828-.845v-.743a.84.84 0 0 0-.828-.84H6.725v-.303h-.262zM7.8 15.943h-.92v.903h.92z" clip-rule="evenodd"/>
    <path fill="#FEAE00" fill-rule="evenodd" d="M4.297 9.429h2.8c.503 0 .914.371.914.823v2.354c0 .457-.411.823-.914.823h-2.8v-.926h.286v-2.217h-.286zm1.428.857h1.143v2.286H5.725z" clip-rule="evenodd"/>
    <path fill="#FBB200" d="M8.297 9.429h3.429v1.428h-.858v-.57h-.857v.856h.857v.572h-.857v.857h.857v-.286h.858v1.143H8.297v-.857h.572v-2.286h-.572zm9.143 0h-1.715v.857h.286v2.286h-.285v.857h1.714v-.857h-.286v-2.286h.286zm-2.286 0v1.143h-.857v-.229h-.571v.8h1.142v.572h-1.142v.8h.285v.914h-1.714v-.915h.286v-2.17h-.572v-.915z"/>
    <path fill="#FEAE00" d="M9.154 14.572h3.429V16h-.857v-.286h-.858v.858h.983v.571h-.983v1.143h.858v-.857h.857v1.714H9.154v-.857h.572v-2.572h-.572zm4 1.428v-1.428h3.714V16h-.857v-.571h-.32V18h.32v.972H14.16V18h.308v-2.57h-.457V16z"/>
    <path fill="#FEAE00" fill-rule="evenodd" d="M5.155 14.572h2.88c.457 0 .834.4.834.891v.789c0 .491-.372.891-.835.891H6.87v1.143h.285v.857H5.44v-.857h.286v-2.823h-.571zm1.714 1.005h.748v.903H6.87z" clip-rule="evenodd"/>
    <path fill="#EA780B" d="M17.257 20.657c-.075.395-1.046.703-2.24.703-1.189 0-2.16-.308-2.234-.703v-.977c.045-.4 1.028-.726 2.234-.726 1.228 0 2.223.332 2.24.743z"/>
    <path fill="#F8A70A" d="M16.697 21.109a5 5 0 0 1-1.914.251v-.988c.457-.16 1.445-.418 1.65-.183.172.194.24.628.258.92z"/>
    <path fill="#FEC61D" d="M15.017 20.463c1.237 0 2.24-.338 2.24-.754 0-.417-1.003-.755-2.24-.755s-2.24.338-2.24.755c0 .416 1.003.754 2.24.754"/>
    <path fill="#FF851F" d="M15.017 20.269c.82 0 1.485-.251 1.485-.56s-.665-.56-1.485-.56-1.486.25-1.486.56c0 .309.665.56 1.486.56"/>
    <path fill="#FBE82D" d="M15.017 20.069c.53 0 .96-.19.96-.423 0-.234-.43-.423-.96-.423s-.96.19-.96.423.43.423.96.423"/>
    <path fill="#FF9A01" d="M18.17 18.703a.24.24 0 1 0 .001-.48.24.24 0 0 0 0 .48m.537-.857a.24.24 0 1 0 0-.48.24.24 0 0 0 0 .48"/>
</svg>
